X:1
T:Listen to the Blessèd Invitation
T:William James Kirkpatrick
T:Listen to the Blessèd Invitation
T:Public Domain
T:Public Domain
T:Public Domain
C:William James Kirkpatrick
Z:Public Domain
%%score ( 1 2 ) ( 3 4 )
L:1/8
M:4/4
K:Ab
V:1 treble 
V:2 treble 
V:3 bass 
V:4 bass 
V:1
 [Ec]>[Ec] [Ec]>[DB] [CA]>[B,G] [CA]>[DF] | [CE]4 [A,C]4 | %2
w: 1.~Lis- ten to the bless- èd in- vi-|ta- tion,|
w: 2.~Wear- y toil- er, sad and heav- y|la- den,|
w: 3.~Come, ye thirst- y, to the liv- ing|wa- ters,|
w: 4.~“Him that com- eth,” blind or maimed or|sin- ful,|
w: 5.~Com- ing hum- bly, dail- y to this|Sav- ior,|
 [CE]>[CE] [CE]>[CE] [EA]>[EA] [DG]>[CA] | [EB]8 | [Ec]>[Ec] [Ec]>[DB] [CA]>[B,G] [CA]>[DF] | %5
w: Sweet- er than the notes of an- gel|song,|Chim- ing soft- ly with a heav’n- ly|
w: Joy- ful- ly the great sal- va- tion|see;|Close be- side thee stands the Bur- den|
w: Hun- gry, come and on His bount- y|feed;|Not thy fit- ness is the plea to|
w: Com- ing for His heal- ing touch di-|vine,|For the cleans- ing of the blood so|
w: Breath- ing all the heart to Him in|prayer;|Com- ing some day to the heav’n- ly|
 [CE]4 [A,C]4 | [B,E]>[B,F] [DG]>[EA] [EB]2 [EG]2 | [EA]8 || %8
w: ca- dence,|Call- ing to the pass- ing|throng.|
w: Bear- er,|Strong to bear thy load and|thee.|
w: bring Him,|But thy pres- sing ut- most|need.|
w: pre- cious,|Prove a- new this gra- cious|line.|
w: man- sions,|He will give thee wel- come|there.|
"^Refrain" [Ac]2 [Ac]2 [Ac]>[GB] [Ac]>[Ad] | [Ae]8 | [GB]2 [GB]2 [GB]>[GB] [EA]>[EB] | [Ec]6 z2 | %12
w: ||||
w: ||||
w: ||||
w: ||||
w: ||||
 [Fd]2 [Fd]2 [Fd]>[Fc] [Fd]>[Af] | [Ae]4- [Ae][Ec][=DA][DB] | (E2 A2) [GB]2 [EB]2 | [EA]8 |] %16
w: ||||
w: ||||
w: ||||
w: ||||
w: ||||
V:2
 x8 | x8 | x8 | x8 | x8 | x8 | x8 | x8 || x8 | x8 | x8 | x8 | x8 | x8 | c4 x4 | x8 |] %16
V:3
 [A,,A,]>[A,,A,] [A,,A,]>[A,,E,] [A,,E,]>[A,,E,] [A,,E,]>[A,,A,] | [A,,A,]4 [A,,E,]4 | %2
w: ~ ~ ~ ~ ~ ~ ~ ~|~ ~|
 [A,,A,]>[A,,A,] [A,,A,]>[A,,A,] [C,A,]>[C,A,] [B,,E,]>[A,,A,] | [E,G,]8 | %4
w: ~ ~ ~ ~ ~ ~ ~ ~|~|
 [A,,A,]>[A,,A,] [A,,A,]>[A,,E,] [A,,E,]>[A,,E,] [A,,E,]>[A,,A,] | [A,,A,]4 [A,,E,]4 | %6
w: ~ ~ ~ ~ ~ ~ ~ ~|~ ~|
 [E,G,]>[E,A,] [E,B,]>[E,C] [E,D]2 [E,B,]2 | [A,,A,C]8 || [A,E]2 [A,E]2 [A,E]>[A,E] [A,E]>[A,D] | %9
w: ~ ~ ~ ~ ~ ~|~|Him that com- eth un- to|
 ([A,C]2 [A,,A,C]>[A,,A,C] [A,,A,C]2) z2 | [E,E]2 [E,E]2 [E,E]>[E,D] [E,C]>[E,G,] | %11
w: Me. * * *|Him that com- eth un- to|
 (A,2 [A,,A,]>[A,,A,] [A,,A,]2) z2 | [D,A,]2 [D,A,]2 [D,A,]>[D,A,] [D,A,]>[D,D] | %13
w: Me, * * *|that com- eth un- to Me,|
 ([A,C]2 [A,C]>[A,C] [A,C])A,[F,A,][F,A,] | (A,2 C2) [E,E]2 [E,D]2 | [A,,A,C]8 |] %16
w: I * * * will not ev-|cast * out. *||
V:4
 x8 | x8 | x8 | x8 | x8 | x8 | x8 | x8 || x8 | x8 | x8 | A,2 x6 | x8 | x5 A, x2 | E,4 x4 | x8 |] %16
w: |||||||||||Him||er|||

